X: 35442
T: Roving Blade, The
R: slip jig
M: 9/8
K: Dmajor
|:eee edc edc|eee edc efa|eee edc edc|d2 c BBB def:|
|:e2 A AAA edc|e2 A AAA def|e2 A AAA edc|BBB f2 B def:|
|:aaa agf ecA|aaa a2 e f2 e|aaa agf ecA|BBB f2 B def:|

